icons/cpp.svg

<svg width="16" height="16" viewBox="0 0 16 16" fill="none" xmlns="http://www.w3.org/2000/svg">
<path d="M8.8 11.94V8.8H12V10H10V12H8.8M6.47 4.5H8V6.5H10V8H8V10H6.47V8H4.47V6.47H6.47V4.47M8 2C7.7648 2.00061 7.53384 2.06266 7.33 2.18L3.23 4.52C3.02715 4.63594 2.85842 4.80328 2.7408 5.00516C2.62318 5.20705 2.56082 5.43635 2.56 5.67V10.45C2.56108 10.6849 2.62346 10.9155 2.74097 11.119C2.85847 11.3224 3.02704 11.4917 3.23 11.61L7.37 14C7.5737 14.1176 7.80478 14.1795 8.04 14.1795C8.27522 14.1795 8.50629 14.1176 8.71 14L12.85 11.61C13.053 11.4917 13.2215 11.3224 13.339 11.119C13.4565 10.9155 13.5189 10.6849 13.52 10.45V5.67C13.5192 5.43635 13.4568 5.20705 13.3392 5.00516C13.2216 4.80328 13.0528 4.63594 12.85 4.52L8.71 2.13C8.48952 2.02303 8.24408 1.97809 8 2" fill="#29AED2"/>
</svg>

<svg id="Calque_1" data-name="Calque 1" xmlns="http://www.w3.org/2000/svg" viewBox="0 0 16 16"><defs><style>.cls-1{fill:#29aed2;}</style></defs><path class="cls-1" d="M8.8,11.94V8.8H12V10H10v2H8.8M6.47,4.5H8v2h2V8H8v2H6.47V8h-2V6.47h2v-2M8,2a1.35,1.35,0,0,0-.67.18L3.23,4.52a1.33,1.33,0,0,0-.67,1.15v4.78a1.35,1.35,0,0,0,.67,1.16L7.37,14a1.34,1.34,0,0,0,1.34,0l4.14-2.39a1.35,1.35,0,0,0,.67-1.16V5.67a1.33,1.33,0,0,0-.67-1.15L8.71,2.13A1.35,1.35,0,0,0,8,2"/></svg>
